X: 153
T: Mrs Leitch's Strathspey
%R: strathspey, reel
B: Urbani & Liston "A Selection of Scotch, English Irish, and Foreign Airs", Edinburgh 1800, p.59 #1
F: http://www.vwml.org/browse/browse-collections-dance-tune-books/browse-urbani1800
Z: 2014 John Chambers <jc:trillian.mit.edu>
M: C
L: 1/8
K: D
A>B !segno!|:\
A<FA>B A<FA>B | A<F D>f e>dBd |\
A>FA>B Acdg | faBg Ac dc/B/ |\
A>FA>B A<FA>B |
A<F D>f e>dBd |\
A<FA>B Acdg | faBg AcHd |] f/g/ |\
afdf afbf | g>b g/f/e/d/ ce-ef/g/ |\
afdf afc'f |
gbeg Ad-df/g/ |\
afdf afbf | g>b g/f/e/d/ ce-eg |\
faBd cefg | fbeg Ac e/d/c/B/ !segno!:|

%%sep 1 1 500
%%sep 1 1 500
